public/flags/UG.svg

<svg fill="none" height="53" viewBox="0 0 61 53" width="61" xmlns="http://www.w3.org/2000/svg" xmlns:xlink="http://www.w3.org/1999/xlink"><mask id="a" height="43" maskUnits="userSpaceOnUse" width="59" x="1" y="3"><rect fill="#fff" height="42.5" rx="4.24286" width="59" x="1" y="3"/></mask><rect fill="#fff" height="42.5" rx="4.24286" width="59" x="1" y="3"/><g clip-rule="evenodd" fill-rule="evenodd" mask="url(#a)"><path d="m1 8.66667h59v-5.66667h-59z" fill="#262626"/><path d="m1 31.3333h59v-5.6667h-59z" fill="#262626"/><path d="m1 25.6667h59v-8.5h-59z" fill="#ed1623"/><path d="m1 17.1666h59v-8.49997h-59z" fill="#fee044"/><path d="m1 45.4999h59v-5.6666h-59z" fill="#ed1623"/><path d="m1 39.8334h59v-8.5h-59z" fill="#fee044"/><path d="m30.5001 34.1666c5.4308 0 9.8333-4.4399 9.8333-9.9167s-4.4025-9.9166-9.8333-9.9166-9.8334 4.4398-9.8334 9.9166 4.4026 9.9167 9.8334 9.9167z" fill="#fff"/><path d="m28.1841 19.0813c-.2733-.2757-.2733-.7202 0-.9959l.8707-.8781c.0269-.027.0509-.0555.0738-.0859.0727-.0966.2561-.3302.4716-.5298.3735-.346 1.4529-.3821 1.8208-.0302.0965.0924.1848.1943.2587.2877.1505.1902.1597.4493.0519.6666l-1.1581 2.3359c-.0484.0976-.0736.2051-.0736.3141v.8156c0 .267.1504.5112.3888.6314l2.318 1.1688c.0681.0343.1301.0794.1838.1335l2.3725 2.3926c.2129.2148.2657.5411.1314.8121l-.7409 1.4942c-.2154.4345-.7942.5282-1.1357.1838l-.2062-.208c-.2766-.2789-.7276-.2789-1.0043 0l-.6976.7036c-.1313.1324-.205.3114-.205.4979v.8343c0 .1865.0744.3662.2057.4986.4426.4464.1306 1.2092-.498 1.2092h-.8202c-.6285 0-.9406-.7628-.498-1.2092.1313-.1324.2057-.3121.2057-.4986v-.4183c0-.3906-.3166-.7072-.7071-.7072h-.403c-.1886 0-.3693.0753-.5021.2092l-.6952.7011c-.2766.279-.7276.279-1.0042 0l-.4089-.4124c-.2734-.2756-.2734-.7201 0-.9958l.7035-.7095c.1328-.1339.3136-.2093.5022-.2093h.8178c.6285 0 .9447-.7587.5021-1.205l-2.5256-2.547c-.2734-.2757-.2734-.7202 0-.9959l1.822-1.8375c.2734-.2756.2734-.7201 0-.9958z" fill="#262626"/></g></svg>

<svg width="61" height="53" viewBox="0 0 61 53" fill="none" xmlns="http://www.w3.org/2000/svg">
<rect x="1" y="3" width="59" height="42.5" rx="4.24286" fill="white"/>
<mask id="mask0" mask-type="alpha" maskUnits="userSpaceOnUse" x="1" y="3" width="59" height="43">
<rect x="1" y="3" width="59" height="42.5" rx="4.24286" fill="white"/>
</mask>
<g mask="url(#mask0)">
<path fill-rule="evenodd" clip-rule="evenodd" d="M1 8.66667H60V3H1V8.66667Z" fill="#262626"/>
<path fill-rule="evenodd" clip-rule="evenodd" d="M1 31.3333H60V25.6666H1V31.3333Z" fill="#262626"/>
<path fill-rule="evenodd" clip-rule="evenodd" d="M1 25.6667H60V17.1667H1V25.6667Z" fill="#ED1623"/>
<path fill-rule="evenodd" clip-rule="evenodd" d="M1 17.1666H60V8.66663H1V17.1666Z" fill="#FEE044"/>
<path fill-rule="evenodd" clip-rule="evenodd" d="M1 45.4999H60V39.8333H1V45.4999Z" fill="#ED1623"/>
<path fill-rule="evenodd" clip-rule="evenodd" d="M1 39.8334H60V31.3334H1V39.8334Z" fill="#FEE044"/>
<path fill-rule="evenodd" clip-rule="evenodd" d="M30.5001 34.1666C35.9309 34.1666 40.3334 29.7267 40.3334 24.2499C40.3334 18.7731 35.9309 14.3333 30.5001 14.3333C25.0693 14.3333 20.6667 18.7731 20.6667 24.2499C20.6667 29.7267 25.0693 34.1666 30.5001 34.1666Z" fill="white"/>
<path fill-rule="evenodd" clip-rule="evenodd" d="M28.1841 19.0813C27.9108 18.8056 27.9108 18.3611 28.1841 18.0854L29.0548 17.2073C29.0817 17.1803 29.1057 17.1518 29.1286 17.1214C29.2013 17.0248 29.3847 16.7912 29.6002 16.5916C29.9737 16.2456 31.0531 16.2095 31.421 16.5614C31.5175 16.6538 31.6058 16.7557 31.6797 16.8491C31.8302 17.0393 31.8394 17.2984 31.7316 17.5157L30.5735 19.8516C30.5251 19.9492 30.4999 20.0567 30.4999 20.1657V20.9813C30.4999 21.2483 30.6503 21.4925 30.8887 21.6127L33.2067 22.7815C33.2748 22.8158 33.3368 22.8609 33.3905 22.915L35.763 25.3076C35.9759 25.5224 36.0287 25.8487 35.8944 26.1197L35.1535 27.6139C34.9381 28.0484 34.3593 28.1421 34.0178 27.7977L33.8116 27.5897C33.535 27.3108 33.084 27.3108 32.8073 27.5897L32.1097 28.2933C31.9784 28.4257 31.9047 28.6047 31.9047 28.7912V29.6255C31.9047 29.812 31.9791 29.9917 32.1104 30.1241V30.1241C32.553 30.5705 32.241 31.3333 31.6124 31.3333H30.7922C30.1637 31.3333 29.8516 30.5705 30.2942 30.1241V30.1241C30.4255 29.9917 30.4999 29.812 30.4999 29.6255V29.2072C30.4999 28.8166 30.1833 28.5 29.7928 28.5H29.3898C29.2012 28.5 29.0205 28.5753 28.8877 28.7092L28.1925 29.4103C27.9159 29.6893 27.4649 29.6893 27.1883 29.4103L26.7794 28.9979C26.506 28.7223 26.506 28.2778 26.7794 28.0021L27.4829 27.2926C27.6157 27.1587 27.7965 27.0833 27.9851 27.0833H28.8029C29.4314 27.0833 29.7476 26.3246 29.305 25.8783L26.7794 23.3313C26.506 23.0556 26.506 22.6111 26.7794 22.3354L28.6014 20.4979C28.8748 20.2223 28.8748 19.7778 28.6014 19.5021L28.1841 19.0813Z" fill="#262626"/>
</g>
</svg>
